X:1
T:Midnight Whirl Rag
T:Midnight Whirl Rag
T:Silvio Hein.
T:Copyright 1914 by T. B. Harms &amp; Francis, Day &amp; Hunter
T:Copyright 1914 by T. B. Harms &amp; Francis, Day &amp; Hunter
T:Copyright 1914 by T. B. Harms &amp; Francis, Day &amp; Hunter
T:Copyright 1914 by T. B. Harms &amp; Francis, Day &amp; Hunter
C:Silvio Hein.
Z:Copyright 1914 by T. B. Harms & Francis, Day & Hunter
%%score { ( 1 3 ) | ( 2 4 ) }
L:1/8
Q:1/4=90
M:2/4
K:F
V:1 treble nm="Piano" snm="Pno."
V:3 treble 
V:2 treble 
V:4 treble 
V:1
"^Moderato."!f! c/d/ |"^(Not fast.)" e/gd/ eg/d/ | e/gd/ eg/!<(!d/ | %3
 e/gb/!<)!!ff! !>![dfbd']!>![dfbd'] |!>(! !>![cebc'] z z!>)!!<(! c/d/!<)! |:!mf! e/gd/ eg/d/ | %6
 e/ge/ [Bd]/c/B/G/ | F!>![Fd] !>![Gd]!>![^Gd] | d/c/d/e/ d/c/A/F/ | [^G,DE] !^![D^Gc]2 [DG=B] | %10
!<(! !>![EAc]!>![EAd] !>![EAe][^Fc]/d/ | [=FAce] !^![F=Be]2!<)!!f! [FBd] | %12
 (!arpeggio!!>![E_Bdg]2 [EBc])[FBd] |!mf! e/gd/ eg/d/ | e/ge/ [Bd]/c/B/G/ | %15
 F!>![Fd] !>![Gd]!>![^Gd] | d/c/d/e/ d/c/A/F/ | !^![F^Gdf]!<(! (3=B,/C/^C/ D(3D/^D/E/ | %18
 F(3F/^F/G/ ^G2!<)! | A/dA/ c/A/G |1 [A,CF]!<(!c/=B/ c!<)!c/d/ :|2 [A,CF] z!sfz! !^![FAcf] z |: %22
[K:Bb] [F,B,F] !^![F,B,F]2 [F,B,F] |!<(! [^F,B,=E^F] !^![F,B,EF]2 [F,B,EF] | %24
 [G,B,_EG] !^![G,B,EG]2"_cresc." [G,B,EG]!<)! | [EBd]4 |!f! [FAd]/fd/ !>![FAf]d/!^![FAf]/- | %27
 [FAf]/.c/.d/!>(!.A/ .c/.G/.A/.F/!>)! |!<(! G/BG/!<)! !>!BG/!^!B/- | %29
 [B,DB]/!>(!.F/.G/.D/ .F/.B,/.C/!>)!.D/ | [F,B,F] !^![F,B,F]2 [F,B,F] | %31
!<(! [^F,B,=E^F] !^![F,B,EF]2 [F,B,EF] | [G,B,_EG] !^![G,B,EG]2"_cresc." [G,B,EG]!<)! | [EBd]4 | %34
!f! !>!d/gd/ [Bdf]c/d/- | d/B/c/F/ G/B/c/d/ | [=E_Bd] !^![EBd]2 [_EAc] |1 %37
 [DFB]!>!.F/!>!.F/ !>!.F!>!.F :|2 [DFB]2 [Fc][F=Bd] ||[K:F]!mf! [EBe]/gd/ eg/d/ | %40
 e/ge/ [Bd]/c/B/G/ | F!>![Fd] !>![Gd]!>![^Gd] | d/c/d/e/ d/c/A/F/ | [^G,DE] !^![D^Gc]2 [DG=B] | %44
 !>![EAc]!>![EAd] !>![EAe]!<(![^Fc]/d/ | [=FAce] !^![F=Be]2!<)! [FBd] | %46
!f! (!arpeggio!!>![E_Bdg]2!>(! [EBc])[FBd]!>)! | e/gd/ eg/d/ | e/ge/ [Bd]/c/B/G/ | %49
 F!>![Fd] !>![Gd]!>![^Gd] | d/c/d/e/ d/c/A/F/ | !^![F^Gdf]!<(! (3=B,/C/^C/ D(3D/^D/E/ | %52
 F(3F/^F/G/ ^G2!<)! | A/dA/ c/A/G | [A,CF]2 !^![FAcf] z ||[K:Bb]!f! F/F/F !>!c!>!c | %56
 F/F/F !>!c!>!c |!<(! !^![A,_EF]2 !^![EAc]2 | !^![FAf]2!<)! z2 | %59
"_leggiero." (3e'/f'/^f'/g' (3c'/^c'/d'/e' | (3a/b/=b/c' (3f/g/^g/a | (3c/^c/d/e (3A/B/=B/=c | %62
 [A,EF][EA][EG][EA] |:!mf! (!^!G2 F)A | (!^!G2 F)A |!p! .G.F.G!<(!.B | .c.d.f.g!<)! | %67
!f! (!arpeggio!!>![FAdf]2 [EAd])[EB] | (!arpeggio!!>![DGc]2 [DGB])c | [B,=EA] !>![B,EA]2 [B,EG] | %70
 [A,_EG]2 [A,EF].A |!mf! (!^!G2 F)A | (!^!G2 F)A |!p!!<(! .G.F.G.B | .c.d.f._a!<)! | %75
!f! (!arpeggio![F=Bdg]2 [FBd])g | [=E_Bd]2 [EB][EBc] | d/cB/ [_EAd][EAd] |1 %78
 [DB]!<(!(3(D/E/=E/) F!<)!A :|2 [DB]2 !^![Bdfb] c/d/ ||[K:F]!mf! e/gd/ eg/d/ | e/ge/ d/c/B/G/ | %82
 F!>![Fd] !>![Gd]!>![^Gd] | d/c/d/e/ d/c/A/F/ | [^G,DE] !^![D^Gc]2 [DG=B] | %85
!<(! !>![EAc]!>![EAd] !>![EAe][^Fc]/d/ | [=FAce] !^![F=Be]2!<)!!f! [FBd] | %87
 (!arpeggio!!>![E_Bdg]2 [EBc])[FBd] | e/gd/ eg/d/ | e/ge/ [Bd]/c/B/G/ | F!>![Fd] !>![Gd]!>![^Gd] | %91
 d/c/d/e/ d/c/A/F/ | !^![F^Gdf]!<(! (3=B,/C/^C/ D(3D/^D/E/ | F(3F/^F/G/ ^G2!<)! | A/dA/ c/A/G | %95
 [A,CF] z !^![FAf] z |] %96
V:2
 C/D/ | E/GD/ EG/D/ | E/GD/ EG/D/ |[K:bass] [C,C] z !>![G,,G,]!>![G,,G,] | %4
 !>![C,C] z !^![C,,C,] z |: [G,,G,][B,CE] [C,,C,][B,CE] | [G,,G,][B,CE] [C,,C,][B,CE] | %7
 [A,,A,][A,C] [C,,C,][B,CE] | [F,,F,][A,CF] [C,,C,][F,A,C] | [E,,E,] !^![E,,E,]2 [E,,E,] | %10
 !>![A,,A,]!>![=B,,=B,] !>![C,C][_A,,_A,] | [G,,G,] !^![G,,G,]2 [G,,G,] | [C,,C,]2 [C,,C,] z | %13
 [G,,G,][B,CE] [C,,C,][B,CE] | [G,,G,][B,CE] [C,,C,][B,CE] | [A,,A,][A,C] [C,,C,][B,CE] | %16
 [F,,F,][A,CF] [C,,C,][F,A,C] | !^![=B,,,=B,,] (3B,,/C,/^C,/ D,(3D,/^D,/E,/ | F,(3F,/^F,/G,/ ^G,2 | %19
 [C,C]2 [C,,C,]2 |1 [F,,F,] C/=B,/ C z :|2 [F,,F,] z !^![F,,,F,,] z |: %22
[K:Bb] [D,,D,] !^![D,,D,]2 [D,,D,] | [_D,,_D,] !^![D,,D,]2 [D,,D,] | [C,,C,] !^![C,,C,]2 [C,,C,] | %25
 G,!>!^F,!>!G,!>!^G, | [F,A,E]>!>![F,A,E]- [F,A,E]>!^![F,A,E]- | %27
 [F,A,E]/.C/.D/.A,/ .C/.G,/.A,/.F,/ | [B,,F,]>!>![B,,F,]- [B,,F,]>!^![B,,F,]- | %29
 [B,,F,]/.F,/.G,/.D,/ .F,/.B,,/.C,/.D,/ | [D,,D,] !^![D,,D,]2 [D,,D,] | %31
 [_D,,_D,] !^![D,,D,]2 [D,,D,] | [C,,C,] !^![C,,C,]2 [C,,C,] | G,!>!A,!>!B,!>!C | %34
 (!>![=E,B,D]2 [F,B,D])C/D/- | D/B,/C/F,/ G,/B,/C/D/ | [_G,,_G,] !^![G,,G,]2 [F,,F,] |1 %37
 [B,,,B,,]!>!.F,/!>!.F,/ !>!.F,!>!.F, :|2 [B,,,B,,]2 [A,,A,][_A,,_A,] || %39
[K:F] [G,,G,][B,CE] [C,,C,][B,CE] | [G,,G,][B,CE] [C,,C,][B,CE] | [A,,A,][A,C] [C,,C,][B,CE] | %42
 [F,,F,][A,CF] [C,,C,][F,A,C] | [E,,E,] !^![E,,E,]2 [E,,E,] | %44
 !>![A,,A,]!>![=B,,=B,] !>![C,C][_A,,_A,] | [G,,G,] !^![G,,G,]2 [G,,G,] | [C,,C,]2 [C,,C,] z | %47
 [G,,G,][B,CE] [C,,C,][B,CE] | [G,,G,][B,CE] [C,,C,][B,CE] | [A,,A,][A,C] [C,,C,][B,CE] | %50
 [F,,F,][A,CF] [C,,C,][F,A,C] | !^![=B,,,=B,,] (3B,,/C,/^C,/ D,(3D,/^D,/E,/ | F,(3F,/^F,/G,/ ^G,2 | %53
 [C,C]2 [C,,C,]2 | [F,,F,]2 !^![F,,,F,,] z ||[K:Bb] [F,,F,]2 [_G,,_G,][G,,G,] | %56
 [F,,F,]2 !>![_G,,_G,]!>![G,,G,] | !^![F,,F,]2 !^![F,,F,]2 | !^![F,,F,]2 !^![F,,,F,,] z | %59
[K:treble] .e.g .c.e | .A.c .F.A |[K:bass] .C.E .A,.C | [F,,F,]A,G,A, |: [B,,F,]3 F,, | %64
 [C,F,]3 F,, | .B,,.F, .F,,.F, | .B,,.F, .F,,.F, | .F,,.F, .F,,.F, | .G,,.D, [G,,G,]D, | %69
 [C,,C,] !>![C,,C,]2 [C,,C,] | [F,,F,]2 F,, z | [B,,F,]3 F,, | [C,F,]3 F,, | .B,,.F, .F,,.F, | %74
 .B,,.F, .F,,.F, | .B,,.G, .G,,.G, | C,2 [G,,G,][_G,,_G,] | [F,,F,]2 [F,,F,][F,,F,] |1 %78
 [B,,F,](3(D,/E,/=E,/) F,A, :|2 [B,,F,]2 !^![B,,,B,,] z ||[K:F] [G,,G,][B,CE] [C,,C,][B,CE] | %81
 [G,,G,][B,CE] [C,,C,][B,CE] | [A,,A,][A,C] [C,,C,][B,CE] | [F,,F,][A,CF] [C,,C,][F,A,C] | %84
 [E,,E,] !^![E,,E,]2 [E,,E,] | !>![A,,A,]!>![=B,,=B,] !>![C,C][_A,,_A,] | %86
 [G,,G,] !^![G,,G,]2 [G,,G,] | [C,,C,]2 [C,,C,] z | [G,,G,][B,CE] [C,,C,][B,CE] | %89
 [G,,G,][B,CE] [C,,C,][B,CE] | [A,,A,][A,C] [C,,C,][B,CE] | [F,,F,][A,CF] [C,,C,][F,A,C] | %92
 !^![=B,,,=B,,] (3B,,/C,/^C,/ D,(3D,/^D,/E,/ | F,(3F,/^F,/G,/ ^G,2 | [C,C]2 [C,,C,]2 | %95
 [F,,F,] z !^![F,,,F,,] z |] %96
V:3
 x | x4 | x4 | B2 x2 | x4 |: B2 cB | B2 x2 | x4 | A2- A z | x4 | x4 | x4 | x4 | B2 cB | B2 x2 | %15
 x4 | A2- A z | x4 | x4 | F2 [CE][B,E] |1 x4 :|2 x4 |:[K:Bb] x4 | x4 | x4 | x4 | x4 | x4 | %28
 [B,D]>[B,D]- [B,D]>[B,D]- | x4 | x4 | x4 | x4 | x4 | B2 x2 | x4 | x4 |1 x4 :|2 x4 ||[K:F] x2 cB | %40
 B2 x2 | x4 | A2- A z | x4 | x4 | x4 | x4 | [EB]2 cB | B2 x2 | x4 | A2- A z | x4 | x4 | %53
 F2 [CE][B,E] | x4 ||[K:Bb] [A,E]2 [=EB][EB] | [A,E]2 [=EB][EB] | x4 | x4 | x4 | x4 | x4 | x4 |: %63
 [B,D]3 [B,D] | [A,E]3 [A,E] | z [B,D]z[DF] | z [FB]z[Bd] | x4 | x4 | x4 | x4 | [B,D]3 [B,D] | %72
 [A,E]3 [A,E] | z [B,D]z[DF] | z [FB]z[_A=Bd] | x4 | x4 | [FB]2 x2 |1 x4 :|2 x4 ||[K:F] B2 cB | %81
 B2 B2 | x4 | A2- A z | x4 | x4 | x4 | x4 | B2 cB | B2 x2 | x4 | A2- A z | x4 | x4 | F2 [CE][B,E] | %95
 x4 |] %96
V:4
 x | x4 | x4 |[K:bass] x4 | x4 |: x4 | x4 | x4 | x4 | x4 | x4 | x4 | x4 | x4 | x4 | x4 | x4 | x4 | %18
 x4 | x4 |1 x4 :|2 x4 |:[K:Bb] x4 | x4 | x4 | C,4 | x4 | x4 | x4 | x4 | x4 | x4 | x4 | C,4 | x4 | %35
 x4 | x4 |1 x4 :|2 x4 ||[K:F] x4 | x4 | x4 | x4 | x4 | x4 | x4 | x4 | x4 | x4 | x4 | x4 | x4 | x4 | %53
 x4 | x4 ||[K:Bb] x4 | x4 | x4 | x4 |[K:treble] x4 | x4 |[K:bass] x4 | x4 |: x4 | x4 | x4 | x4 | %67
 x4 | x4 | x4 | x4 | x4 | x4 | x4 | x4 | x4 | x4 | x4 |1 x4 :|2 x4 ||[K:F] x4 | x4 | x4 | x4 | x4 | %85
 x4 | x4 | x4 | x4 | x4 | x4 | x4 | x4 | x4 | x4 | x4 |] %96

